__todo__/fastly.svg

<svg height="199" preserveAspectRatio="xMidYMid" viewBox="0 0 512 199" width="512" xmlns="http://www.w3.org/2000/svg"><path d="m444.020873 49.1074932v19.9492499h-13.245361l19.510758 48.0008859 19.510758-48.0008859h-13.217688v-19.9492499h55.42066v19.9485911h-13.246679l-33.988904 83.6198867c-9.741378 23.489472-25.741563 45.597909-50.109338 45.597909-5.991298 0-13.967176-.663833-19.498238-1.992817l2.43032-24.3882.422417.077038c.142364.025322.286219.050282.431367.074868l.439119.072621c.073766.011913.147805.023728.222092.035445l.448502.069109c.07518.011318.150559.022534.22611.033646l.455191.065427c.076145.010694.152414.021282.228781.031762l.689289.091365.460485.057549.459855.054771.458027.051916.455002.048988.45078.045981.445359.0429.438742.039742.430927.036508.421915.0332.411705.029813.400297.026353.387693.022815.37389.019202.35889.015513.342693.011747.325299.007907.306706.00399c.049502.000334.098179.000502.146007.000502 11.300314 0 24.047224-7.001708 28.033845-19.192513l-34.438927-84.7442849h-13.247337v-19.9492499zm-68.709178-49.1074932v133.525297h13.260187v20.411133h-40.127136v-133.587892l-.003953-20.3449141zm-329.2248887.00065889c5.9860269 0 13.0812972.88390259 19.2933238 2.00302936l-3.6818843 21.84685665-.4486171-.0702348-.6433514-.0975402-.4103019-.0599971-.5894698-.082757-.5605887-.0744375-.5342934-.0665308-.3428641-.0401652-.4962142-.0542705-.4768144-.0474647-.3083756-.028066-.301669-.025347-.4416043-.0331901-.2882542-.0190847-.4250737-.02437-.2796281-.0135869-.2775183-.0116019-.413998-.0139485c-.0459276-.0013322-.0918471-.0025946-.1377745-.0037894l-.2822085-.0065108c-.2511831-.0050732-.5035734-.0082937-.7597653-.0100758l-.5346296-.0017705-.2907493.0002998-.5684824.0025354c-.0933105.0006529-.1859059.0014259-.2777911.0023267l-.5428265.006999-.5260122.0104303c-.1725608.0040891-.3423578.0088109-.5094296.014226l-.4930786.0183861c-7.113045.3019516-9.0249344 2.0638172-9.0249344 10.459383v15.5271014h20.2744128v19.9680283h-20.2744128v64.4501055h13.4983753v20.407838l-54.00964401.0056v-20.413768h13.64003691v-64.4497755h-13.6406958v-17.7245036l13.6406958-2.2431952v-17.9422673c0-21.73319792 4.7305096-31.16489651 32.4461105-31.16489651zm83.4400097 28.28488291v6.8241366h-3.278314v9.2791652h-.151874c6.446492 1.1940104 12.502279 3.5021019 17.95547 6.724518l.313937.1869216v-7.8414645h26.870243l.017461 83.6162623h6.422542v26.861349h-28.382399l-4.840874-7.902083c-8.311913 5.007574-18.048019 7.89187-28.459159 7.89187-30.5050173 0-55.2338643-24.728847-55.2338643-55.2338639 0-26.7972317 19.0882674-49.121796 44.4064483-54.1562556l.769111-.1472539h-.186466v-9.2791652h-3.277984v-6.8241366zm-11.923626 41.9618178v3.1751969h-3.219342v-3.1659724c-14.206166.8280978-25.60739 12.0845626-26.6638332 26.2282776l-.0288392.4294734h3.183433v3.2193429h-3.1999053c.7449293 14.300424 12.0580368 25.799457 26.2773737 26.843462l.431771.028428v-3.149829h3.219342v3.158724c14.007867-.748516 25.31799-11.63706 26.730971-25.458559l.03978-.419723v-.881597h-3.22659v-3.2193423h3.225602v-.9231066c-1.231138-14.0136283-12.625015-25.1086978-26.769763-25.8647755zm10.448698 14.3839251 2.044869 2.0455279-9.260387 10.3538168c.151874.4951568.234894 1.0216109.234894 1.5681612 0 2.8810024-2.273833 5.2157834-5.07478 5.2157834-2.802264 0-5.070827-2.334781-5.070827-5.2157834 0-2.8777075 2.268563-5.2131475 5.070827-5.2131475.532504 0 1.044316.089032 1.526771.2463046l.143848.0492081zm206.72416 42.4441263c-1.878114.39626-3.650798.594158-5.274561.697693l-.459843.027104-.451512.022507-.442958.01845-.434176.014932-.634307.01698-.411239.008494-1.908135.028776-.350438.006789-.171138.003962c-8.512509.20928-9.904129-1.896861-10.093963-7.635502l-.012463-.454542c-.00512-.23097-.008648-.467506-.010936-.709685l-.003024-.491908-.000338-.507096.001726-.522424.016626-2.544292.002229-.919874v-45.0602535h21.04268v-19.9680283h-21.04268v-49.1074932h-26.870573v119.706701c0 23.50298 5.800219 34.229399 31.07957 34.229399 3.547861 0 7.882183-.540966 12.117483-1.258588l.792742-.136535.789124-.140142.784209-.143215.777997-.145754c.129077-.024475.25784-.049032.386264-.073663l.766247-.148563.756792-.149767c.125272-.025033.250096-.050093.374445-.07517l.740178-.150575.72748-.150446.713485-.149783.698194-.148588zm-81.051529-58.0364579v-3.5748144c-.186875-.0340882-.37372-.067404-.560491-.099965l-.560047-.0954361-.559337-.091012c-.279447-.0444176-.558528-.0872155-.837095-.1284528l-.556402-.0804113-.554765-.0763548c-.09231-.0123935-.18454-.0246225-.276685-.0366889l-.551812-.0704666c-.091784-.0114254-.183472-.0226926-.275059-.033804l-.548261-.0648147-.545564-.061178-.5426-.0576462-.539371-.0542194-.535879-.0508976-.53212-.0476807-.528096-.0445687-.523808-.0415619-.519255-.0386598-.769763-.0527782-.758026-.0468392-.745395-.0412544-.48947-.0245753-.483194-.0223555-.476652-.0202408-.702131-.0266257-.459137-.0154132-.895601-.0256893-.650816-.0151853-.838209-.0154785-.997295-.0128649-.937354-.0071923-1.830778-.0039376c-11.629433 0-13.762184 5.7355072-14.003785 9.4298047l-.013039.2354324-.008245.2293042c-.001.0376809-.001819.0750871-.002467.112209l-.001905.2192417c0 5.0853225 1.73519 7.8348756 15.282323 10.7969212l1.188062.2671214 1.187308.2685306c.197768.0449252.395466.0899485.593072.1350897l1.184379.2724196c18.335943 4.2493216 35.536481 9.8594165 35.536481 32.6945545 0 23.285875-11.984243 35.315911-37.209894 35.315911-8.102465 0-16.089403-.834871-23.587002-2.053851l-.934624-.154341-.929364-.158146c-.308894-.053328-.616884-.107257-.923943-.161756l-.918359-.16517c-.305171-.055604-.609384-.111744-.912613-.168388l-.906704-.171412c-.150616-.028809-.300979-.057737-.451085-.086778l-.897537-.175579-.891223-.178113c-.148002-.029885-.295734-.059869-.443193-.089945l-.881448-.181547-.874727-.183591-.867846-.185441-.860802-.187094-.853595-.188552c-.141656-.031535-.283005-.063124-.424044-.094761l-.842481-.190371-.83487-.191341-.827094-.192113-.819158-.19269-1.213502-.289691-1.194731-.289889-.785789-.193044-1.162231-.288752-1.142001-.287191c-.125745-.031799-.251105-.063557-.376077-.095269v-20.066203h20.347879l-.01186 3.564931.559446.105452c.55993.102965 1.121174.198525 1.682482.287208l.561281.086409c.093535.014026.18706.027866.28057.041523l.560822.079752c.280271.038794.560297.075979.839921.11162l.558667.069244.557318.065246.55569.061365c.092464.009911.184849.019665.277148.029264l.552728.055764c.091936.008992.183774.017834.27551.026529l.54914.050427.5464.047015.543382.043721.540085.040544.536511.037485.532659.034542.528528.031717.524119.02901.777304.038694.51188.022753.506498.020457.749046.026635.735371.022126.720758.018014.705204.014298.914458.013966.882914.009002 1.260361.006247 1.73165-.000685 1.672908-.003305c13.338265 0 15.496134-7.171043 15.496134-10.983717 0-5.026665-3.452237-7.571263-14.517041-9.986957l-.70899-.15242c-.359595-.076147-.726869-.152214-1.101953-.228277-23.555362-4.024837-42.249424-12.0669339-42.249424-35.9942397 0-22.6480684 15.14758-31.5325578 40.373561-31.5325578 6.665096 0 12.707242.4031243 18.340289 1.0831487l.863423.1067867c.143376.0181562.28649.0364902.429346.0549999l.854065.1131491c.141838.0192038.283424.0385791.424764.0581236l.845096.1192816.839334.1232422.833743.1271009c.415503.064498.828975.1304046 1.240513.1976625l.820525.1363003.815542.1398013c.135517.0235863.270835.0473143.405955.0711817l.808389.1448614.803838.1481071c.133603.0249493.267024.0500296.400266.0752388l.797334.1527842c.132541.025716.264911.0515567.397112.0775198l.791221.1572314.787361.1600686.783675.1628036c.130315.0273561.260483.054822.390509.0823955l.778469.1667145c.129469.0279953.258803.0560938.388004.0842936l.773654.1703958.770659.1727222.767838.1749466.76519.1770687.762715.1790888.760412.1810067.758284.1828224 1.133812.2774148 1.129995.2809258.751497.1890641c.12514.0316223.250227.0632989.375265.0950278v19.9314599z" fill="#ff282d"/></svg>

<?xml version="1.0" encoding="UTF-8"?>
<svg width="512px" height="199px" viewBox="0 0 512 199" version="1.1" xmlns="http://www.w3.org/2000/svg" preserveAspectRatio="xMidYMid">
    <title>Fastly</title>
    <g>
        <path d="M444.020873,49.1074932 L444.020873,69.0567431 L430.775512,69.0567431 L450.28627,117.057629 L469.797028,69.0567431 L456.57934,69.0567431 L456.57934,49.1074932 L512,49.1074932 L512,69.0560843 L498.753321,69.0560843 L464.764417,152.675971 C455.023039,176.165443 439.022854,198.27388 414.655079,198.27388 C408.663781,198.27388 400.687903,197.610047 395.156841,196.281063 L397.587161,171.892863 L398.009578,171.969901 C398.151942,171.995223 398.295797,172.020183 398.440945,172.044769 L398.880064,172.11739 C398.95383,172.129303 399.027869,172.141118 399.102156,172.152835 L399.550658,172.221944 C399.625838,172.233262 399.701217,172.244478 399.776768,172.25559 L400.231959,172.321017 C400.308104,172.331711 400.384373,172.342299 400.46074,172.352779 L401.150029,172.444144 L401.150029,172.444144 L401.610514,172.501693 L401.610514,172.501693 L402.070369,172.556464 L402.070369,172.556464 L402.528396,172.60838 L402.528396,172.60838 L402.983398,172.657368 L402.983398,172.657368 L403.434178,172.703349 L403.434178,172.703349 L403.879537,172.746249 L403.879537,172.746249 L404.318279,172.785991 L404.318279,172.785991 L404.749206,172.822499 L404.749206,172.822499 L405.171121,172.855699 L405.171121,172.855699 L405.582826,172.885512 L405.582826,172.885512 L405.983123,172.911865 L405.983123,172.911865 L406.370816,172.93468 L406.370816,172.93468 L406.744706,172.953882 L406.744706,172.953882 L407.103596,172.969395 L407.103596,172.969395 L407.446289,172.981142 L407.446289,172.981142 L407.771588,172.989049 L407.771588,172.989049 L408.078294,172.993039 C408.127796,172.993373 408.176473,172.993541 408.224301,172.993541 C419.524615,172.993541 432.271525,165.991833 436.258146,153.801028 L401.819219,69.0567431 L388.571882,69.0567431 L388.571882,49.1074932 L444.020873,49.1074932 Z M375.311695,-1.42108547e-14 L375.311695,133.525297 L388.571882,133.525297 L388.571882,153.93643 L348.444746,153.93643 L348.444746,20.348538 L348.440793,0.00362390179 L375.311695,-1.42108547e-14 Z M46.0868063,0.000658891235 C52.0728332,0.000658891235 59.1681035,0.884561483 65.3801301,2.00368825 L61.6982458,23.8505449 L61.2496287,23.7803101 L61.2496287,23.7803101 L60.6062773,23.6827699 L60.6062773,23.6827699 L60.1959754,23.6227728 L60.1959754,23.6227728 L59.6065056,23.5400158 L59.6065056,23.5400158 L59.0459169,23.4655783 L59.0459169,23.4655783 L58.5116235,23.3990475 L58.5116235,23.3990475 L58.1687594,23.3588823 L58.1687594,23.3588823 L57.6725452,23.3046118 L57.6725452,23.3046118 L57.1957308,23.2571471 L57.1957308,23.2571471 L56.8873552,23.2290811 L56.8873552,23.2290811 L56.5856862,23.2037341 L56.5856862,23.2037341 L56.1440819,23.170544 L56.1440819,23.170544 L55.8558277,23.1514593 L55.8558277,23.1514593 L55.430754,23.1270893 L55.430754,23.1270893 L55.1511259,23.1135024 L55.1511259,23.1135024 L54.8736076,23.1019005 L54.8736076,23.1019005 L54.4596096,23.087952 C54.413682,23.0866198 54.3677625,23.0853574 54.3218351,23.0841626 L54.0396266,23.0776518 C53.7884435,23.0725786 53.5360532,23.0693581 53.2798613,23.067576 L52.7452317,23.0658055 L52.4544824,23.0661053 L52.4544824,23.0661053 L51.886,23.0686407 C51.7926895,23.0692936 51.7000941,23.0700666 51.6082089,23.0709674 L51.0653824,23.0779664 L51.0653824,23.0779664 L50.5393702,23.0883967 C50.3668094,23.0924858 50.1970124,23.0972076 50.0299406,23.1026227 L49.536862,23.1210088 C42.423817,23.4229604 40.5119276,25.184826 40.5119276,33.5803918 L40.5119276,49.1074932 L60.7863404,49.1074932 L60.7863404,69.0755215 L40.5119276,69.0755215 L40.5119276,133.525627 L54.0103029,133.525627 L54.0103029,153.933465 L0.000658891235,153.939065 L0.000658891235,133.525297 L13.6406958,133.525297 L13.6406958,69.0755215 L0,69.0755215 L0,51.3510179 L13.6406958,49.1078227 L13.6406958,31.1655554 C13.6406958,9.43235748 18.3712054,0.000658891235 46.0868063,0.000658891235 Z M129.526816,28.2855418 L129.526816,35.1096784 L126.248502,35.1096784 L126.248502,44.3888436 L126.096628,44.3888436 C132.54312,45.582854 138.598907,47.8909455 144.052098,51.1133616 L144.366035,51.3002832 L144.366035,43.4588187 L171.236278,43.4588187 L171.253739,127.075081 L177.676281,127.075081 L177.676281,153.93643 L149.293882,153.93643 L144.453008,146.034347 C136.141095,151.041921 126.404989,153.926217 115.993849,153.926217 C85.4888317,153.926217 60.7599847,129.19737 60.7599847,98.6923531 C60.7599847,71.8951214 79.8482521,49.5705571 105.166433,44.5360975 L105.935544,44.3888436 L105.749078,44.3888436 L105.749078,35.1096784 L102.471094,35.1096784 L102.471094,28.2855418 L129.526816,28.2855418 Z M117.60319,70.2473596 L117.60319,73.4225565 L114.383848,73.4225565 L114.383848,70.2565841 C100.177682,71.0846819 88.776458,82.3411467 87.7200148,96.4848617 L87.6911756,96.9143351 L90.8746086,96.9143351 L90.8746086,100.133678 L87.6747033,100.133678 C88.4196326,114.434102 99.7327401,125.933135 113.952077,126.97714 L114.383848,127.005568 L114.383848,123.855739 L117.60319,123.855739 L117.60319,127.014463 C131.611057,126.265947 142.92118,115.377403 144.334161,101.555904 L144.373941,101.136181 L144.373941,100.254584 L141.147351,100.254584 L141.147351,97.0352417 L144.372953,97.0352417 L144.372953,96.1121351 C143.141815,82.0985068 131.747938,71.0034373 117.60319,70.2473596 Z M128.051888,84.6312847 L130.096757,86.6768126 L120.83637,97.0306294 C120.988244,97.5257862 121.071264,98.0522403 121.071264,98.5987906 C121.071264,101.479793 118.797431,103.814574 115.996484,103.814574 C113.19422,103.814574 110.925657,101.479793 110.925657,98.5987906 C110.925657,95.7210831 113.19422,93.3856431 115.996484,93.3856431 C116.528988,93.3856431 117.0408,93.4746751 117.523255,93.6319477 L117.667103,93.6811558 L128.051888,84.6312847 Z M334.776048,127.075411 C332.897934,127.471671 331.12525,127.669569 329.501487,127.773104 L329.041644,127.800208 L329.041644,127.800208 L328.590132,127.822715 L328.590132,127.822715 L328.147174,127.841165 L328.147174,127.841165 L327.712998,127.856097 L327.712998,127.856097 L327.078691,127.873077 L327.078691,127.873077 L326.667452,127.881571 L326.667452,127.881571 L324.759317,127.910347 L324.759317,127.910347 L324.408879,127.917136 L324.408879,127.917136 L324.237741,127.921098 C315.725232,128.130378 314.333612,126.024237 314.143778,120.285596 L314.131315,119.831054 C314.126195,119.600084 314.122667,119.363548 314.120379,119.121369 L314.117355,118.629461 L314.117355,118.629461 L314.117017,118.122365 L314.117017,118.122365 L314.118743,117.599941 L314.118743,117.599941 L314.135369,115.055649 L314.135369,115.055649 L314.137598,114.135775 L314.137598,114.135775 L314.137598,69.0755215 L335.180278,69.0755215 L335.180278,49.1074932 L314.137598,49.1074932 L314.137598,-1.42108547e-14 L287.267025,-1.42108547e-14 L287.267025,119.706701 C287.267025,143.209681 293.067244,153.9361 318.346595,153.9361 C321.894456,153.9361 326.228778,153.395134 330.464078,152.677512 L331.25682,152.540977 L331.25682,152.540977 L332.045944,152.400835 L332.045944,152.400835 L332.830153,152.25762 L332.830153,152.25762 L333.60815,152.111866 C333.737227,152.087391 333.86599,152.062834 333.994414,152.038203 L334.760661,151.88964 L334.760661,151.88964 L335.517453,151.739873 C335.642725,151.71484 335.767549,151.68978 335.891898,151.664703 L336.632076,151.514128 L336.632076,151.514128 L337.359556,151.363682 L337.359556,151.363682 L338.073041,151.213899 L338.073041,151.213899 L338.771235,151.065311 L338.771235,151.065311 L334.776048,127.075411 Z M253.724519,69.0389531 L253.724519,65.4641387 C253.537644,65.4300505 253.350799,65.3967347 253.164028,65.3641737 L252.603981,65.2687376 L252.603981,65.2687376 L252.044644,65.1777256 C251.765197,65.133308 251.486116,65.0905101 251.207549,65.0492728 L250.651147,64.9688615 L250.651147,64.9688615 L250.096382,64.8925067 C250.004072,64.8801132 249.911842,64.8678842 249.819697,64.8558178 L249.267885,64.7853512 C249.176101,64.7739258 249.084413,64.7626586 248.992826,64.7515472 L248.444565,64.6867325 L248.444565,64.6867325 L247.899001,64.6255545 L247.899001,64.6255545 L247.356401,64.5679083 L247.356401,64.5679083 L246.81703,64.5136889 L246.81703,64.5136889 L246.281151,64.4627913 L246.281151,64.4627913 L245.749031,64.4151106 L245.749031,64.4151106 L245.220935,64.3705419 L245.220935,64.3705419 L244.697127,64.32898 L244.697127,64.32898 L244.177872,64.2903202 L244.177872,64.2903202 L243.408109,64.237542 L243.408109,64.237542 L242.650083,64.1907028 L242.650083,64.1907028 L241.904688,64.1494484 L241.904688,64.1494484 L241.415218,64.1248731 L241.415218,64.1248731 L240.932024,64.1025176 L240.932024,64.1025176 L240.455372,64.0822768 L240.455372,64.0822768 L239.753241,64.0556511 L239.753241,64.0556511 L239.294104,64.0402379 L239.294104,64.0402379 L238.398503,64.0145486 L238.398503,64.0145486 L237.747687,63.9993633 L237.747687,63.9993633 L236.909478,63.9838848 L236.909478,63.9838848 L235.912183,63.9710199 L235.912183,63.9710199 L234.974829,63.9638276 L234.974829,63.9638276 L233.144051,63.95989 L233.144051,63.95989 C221.514618,63.95989 219.381867,69.6953972 219.140266,73.3896947 L219.127227,73.6251271 L219.127227,73.6251271 L219.118982,73.8544313 C219.117982,73.8921122 219.117163,73.9295184 219.116515,73.9666403 L219.11461,74.185882 L219.11461,74.185882 C219.11461,79.2712045 220.8498,82.0207576 234.396933,84.9828032 L235.584995,85.2499246 L235.584995,85.2499246 L236.772303,85.5184552 C236.970071,85.5633804 237.167769,85.6084037 237.365375,85.6535449 L238.549754,85.9259645 C256.885697,90.1752861 274.086235,95.785381 274.086235,118.620519 C274.086235,141.906394 262.101992,153.93643 236.876341,153.93643 C228.773876,153.93643 220.786938,153.101559 213.289339,151.882579 L212.354715,151.728238 L212.354715,151.728238 L211.425351,151.570092 C211.116457,151.516764 210.808467,151.462835 210.501408,151.408336 L209.583049,151.243166 C209.277878,151.187562 208.973665,151.131422 208.670436,151.074778 L207.763732,150.903366 C207.613116,150.874557 207.462753,150.845629 207.312647,150.816588 L206.41511,150.641009 L206.41511,150.641009 L205.523887,150.462896 C205.375885,150.433011 205.228153,150.403027 205.080694,150.372951 L204.199246,150.191404 L204.199246,150.191404 L203.324519,150.007813 L203.324519,150.007813 L202.456673,149.822372 L202.456673,149.822372 L201.595871,149.635278 L201.595871,149.635278 L200.742276,149.446726 C200.60062,149.415191 200.459271,149.383602 200.318232,149.351965 L199.475751,149.161594 L199.475751,149.161594 L198.640881,148.970253 L198.640881,148.970253 L197.813787,148.77814 L197.813787,148.77814 L196.994629,148.58545 L196.994629,148.58545 L195.781127,148.295759 L195.781127,148.295759 L194.586396,148.00587 L194.586396,148.00587 L193.800607,147.812826 L193.800607,147.812826 L192.638376,147.524074 L192.638376,147.524074 L191.496375,147.236883 C191.37063,147.205084 191.24527,147.173326 191.120298,147.141614 L191.120298,127.075411 L211.468177,127.075411 L211.456317,130.640342 L212.015763,130.745794 C212.575693,130.848759 213.136937,130.944319 213.698245,131.033002 L214.259526,131.119411 C214.353061,131.133437 214.446586,131.147277 214.540096,131.160934 L215.100918,131.240686 C215.381189,131.27948 215.661215,131.316665 215.940839,131.352306 L216.499506,131.42155 L216.499506,131.42155 L217.056824,131.486796 L217.056824,131.486796 L217.612514,131.548161 C217.704978,131.558072 217.797363,131.567826 217.889662,131.577425 L218.44239,131.633189 C218.534326,131.642181 218.626164,131.651023 218.7179,131.659718 L219.26704,131.710145 L219.26704,131.710145 L219.81344,131.75716 L219.81344,131.75716 L220.356822,131.800881 L220.356822,131.800881 L220.896907,131.841425 L220.896907,131.841425 L221.433418,131.87891 L221.433418,131.87891 L221.966077,131.913452 L221.966077,131.913452 L222.494605,131.945169 L222.494605,131.945169 L223.018724,131.974179 L223.018724,131.974179 L223.796028,132.012873 L223.796028,132.012873 L224.307908,132.035626 L224.307908,132.035626 L224.814406,132.056083 L224.814406,132.056083 L225.563452,132.082718 L225.563452,132.082718 L226.298823,132.104844 L226.298823,132.104844 L227.019581,132.122858 L227.019581,132.122858 L227.724785,132.137156 L227.724785,132.137156 L228.639243,132.151122 L228.639243,132.151122 L229.522157,132.160124 L229.522157,132.160124 L230.782518,132.166371 L230.782518,132.166371 L232.514168,132.165686 L232.514168,132.165686 L234.187076,132.162381 L234.187076,132.162381 C247.525341,132.162381 249.68321,124.991338 249.68321,121.178664 C249.68321,116.151999 246.230973,113.607401 235.166169,111.191707 L234.457179,111.039287 C234.097584,110.96314 233.73031,110.887073 233.355226,110.81101 C209.799864,106.786173 191.105802,98.7440761 191.105802,74.8167703 C191.105802,52.1687019 206.253382,43.2842125 231.479363,43.2842125 C238.144459,43.2842125 244.186605,43.6873368 249.819652,44.3673612 L250.683075,44.4741479 C250.826451,44.4923041 250.969565,44.5106381 251.112421,44.5291478 L251.966486,44.6422969 C252.108324,44.6615007 252.24991,44.680876 252.39125,44.7004205 L253.236346,44.8197021 L253.236346,44.8197021 L254.07568,44.9429443 L254.07568,44.9429443 L254.909423,45.0700452 C255.324926,45.1345432 255.738398,45.2004498 256.149936,45.2677077 L256.970461,45.404008 L256.970461,45.404008 L257.786003,45.5438093 C257.92152,45.5673956 258.056838,45.5911236 258.191958,45.614991 L259.000347,45.7598524 L259.000347,45.7598524 L259.804185,45.9079595 C259.937788,45.9329088 260.071209,45.9579891 260.204451,45.9831983 L261.001785,46.1359825 C261.134326,46.1616985 261.266696,46.1875392 261.398897,46.2135023 L262.190118,46.3707337 L262.190118,46.3707337 L262.977479,46.5308023 L262.977479,46.5308023 L263.761154,46.6936059 C263.891469,46.720962 264.021637,46.7484279 264.151663,46.7760014 L264.930132,46.9427159 C265.059601,46.9707112 265.188935,46.9988097 265.318136,47.0270095 L266.09179,47.1974053 L266.09179,47.1974053 L266.862449,47.3701275 L266.862449,47.3701275 L267.630287,47.5450741 L267.630287,47.5450741 L268.395477,47.7221428 L268.395477,47.7221428 L269.158192,47.9012316 L269.158192,47.9012316 L269.918604,48.0822383 L269.918604,48.0822383 L270.676888,48.2650607 L270.676888,48.2650607 L271.8107,48.5424755 L271.8107,48.5424755 L272.940695,48.8234013 L272.940695,48.8234013 L273.692192,49.0124654 C273.817332,49.0440877 273.942419,49.0757643 274.067457,49.1074932 L274.067457,69.0389531 L253.724519,69.0389531 Z" fill="#FF282D"></path>
    </g>
</svg>
